zondicons/svg/photo.svg

<svg width="20px" height="20px" viewBox="0 0 20 20" version="1.1" xmlns="http://www.w3.org/2000/svg" xmlns:xlink="http://www.w3.org/1999/xlink"><title>photo</title><desc>Created with Sketch.</desc><defs></defs><g id="Page-1" stroke="none" stroke-width="1" fill="none" fill-rule="evenodd"><g id="photo" fill="#000000"><path d="M11,13 L8,10 L2,16 L11,16 L18,16 L13,11 L11,13 Z M0,3.99406028 C0,2.8927712 0.898212381,2 1.99079514,2 L18.0092049,2 C19.1086907,2 20,2.89451376 20,3.99406028 L20,16.0059397 C20,17.1072288 19.1017876,18 18.0092049,18 L1.99079514,18 C0.891309342,18 0,17.1054862 0,16.0059397 L0,3.99406028 Z M15,9 C16.1045695,9 17,8.1045695 17,7 C17,5.8954305 16.1045695,5 15,5 C13.8954305,5 13,5.8954305 13,7 C13,8.1045695 13.8954305,9 15,9 Z" id="Combined-Shape"></path></g></g></svg>

<svg xmlns="http://www.w3.org/2000/svg" viewBox="0 0 20 20"><path d="M0 4c0-1.1.9-2 2-2h16a2 2 0 0 1 2 2v12a2 2 0 0 1-2 2H2a2 2 0 0 1-2-2V4zm11 9l-3-3-6 6h16l-5-5-2 2zm4-4a2 2 0 1 0 0-4 2 2 0 0 0 0 4z"/></svg>
